X: 32094
T: Perigoldino
R: jig
M: 6/8
K: Gmajor
|:BcB|B2G ded|d2B g2g|fed cBA|B2G BcB|
B2G ded|d2B g2g|fed cBA|G3:|
K:C
|:G2G|ced cBA|G2G cBc|d2d dcd|e2c G2G|
ced cBA|G2G cBc|d2d ded|c3:|

